assets/karura-testnet/logo.svg

<svg width="64" height="64" viewBox="0 0 64 64" fill="none" xmlns="http://www.w3.org/2000/svg">
<path d="M32 64C49.6731 64 64 49.6731 64 32C64 14.3269 49.6731 0 32 0C14.3269 0 0 14.3269 0 32C0 49.6731 14.3269 64 32 64Z" fill="#1B1B1B"/>
<path d="M41.7365 14.4844L30.351 24.8265C29.1722 25.8992 27.6382 26.4923 26.0457 26.4996L22.652 26.5069L22.6411 14.4844H16.5053V48.8423H19.8514C21.7222 48.8423 23.4684 47.8503 24.3836 46.221C24.391 46.2102 24.3946 46.1991 24.402 46.1917C25.0097 45.1006 25.3135 42.9445 25.255 41.4728C25.1231 38.1085 24.5813 37.2333 24.5813 37.2333C24.4679 39.5397 22.059 39.6643 22.059 39.6643C23.7723 38.028 22.8387 36.7904 22.8387 36.7904C19.8038 38.9506 19.046 36.6439 18.9874 36.4354C19.0826 36.5159 19.9466 37.237 21.5867 34.9893C23.322 32.6132 25.6357 28.6522 27.1074 27.6345C28.5828 26.613 29.9812 26.6973 29.9812 26.6973C29.9812 26.6973 30.7866 25.6063 32.9173 24.6984C35.0478 23.7978 36.4134 25.1194 36.4134 25.1194C34.2353 26.8767 31.2772 29.7615 31.1124 33.8946C30.9807 37.2408 38.1926 42.9812 36.926 51.4599C37.6839 49.5341 37.9878 47.6047 37.7277 45.2179C37.5192 43.2921 36.2779 39.2689 36.2779 39.2689L43.2044 48.8386H50.8632L35.8936 28.2751L50.8632 14.4844H41.7365Z" fill="url(#paint0_linear)"/>
<defs>
<linearGradient id="paint0_linear" x1="68.9257" y1="62.7818" x2="36.7263" y2="-1.49107" gradientUnits="userSpaceOnUse">
<stop stop-color="#E40C5B"/>
<stop offset="1" stop-color="#FF4C3B"/>
</linearGradient>
</defs>
</svg>

<svg viewBox="0 0 64 64" fill="none" xmlns="http://www.w3.org/2000/svg">
    <path d="M32 64c17.673 0 32-14.327 32-32C64 14.327 49.673 0 32 0 14.327 0 0 14.327 0 32c0 17.673 14.327 32 32 32Z" fill="#1B1B1B"/>
    <path d="M41.736 14.484 30.352 24.826a6.437 6.437 0 0 1-4.305 1.674l-3.394.007-.01-12.023h-6.137v34.358h3.346c1.871 0 3.617-.992 4.533-2.621.007-.01.01-.022.018-.03.608-1.09.912-3.247.853-4.718-.132-3.364-.674-4.24-.674-4.24-.113 2.307-2.522 2.431-2.522 2.431 1.713-1.636.78-2.874.78-2.874-3.035 2.16-3.793-.146-3.852-.355.096.08.96.802 2.6-1.446 1.735-2.376 4.049-6.337 5.52-7.354 1.476-1.022 2.874-.938 2.874-.938s.806-1.09 2.936-1.999c2.13-.9 3.496.421 3.496.421-2.178 1.758-5.136 4.643-5.3 8.776-.132 3.346 7.08 9.086 5.813 17.565.758-1.926 1.062-3.855.802-6.242-.209-1.926-1.45-5.95-1.45-5.95l6.926 9.57h7.66l-14.97-20.563 14.97-13.79h-9.127Z" fill="url(#a)"/>
    <defs>
        <linearGradient id="a" x1="68.926" y1="62.782" x2="36.726" y2="-1.491" gradientUnits="userSpaceOnUse">
            <stop stop-color="#E40C5B"/>
            <stop offset="1" stop-color="#FF4C3B"/>
        </linearGradient>
    </defs>
</svg>
